public/img/assets/icons/weather-conditions/showers-day.svg

<svg width="120" height="120" viewBox="0 0 120 120" fill="none" xmlns="http://www.w3.org/2000/svg">
<path d="M51.4835 53C51.4835 62.1113 58.8953 69.5231 68.0066 69.5231C77.1179 69.5231 84.5297 62.1113 84.5297 53C84.5297 43.8887 77.1179 36.4769 68.0066 36.4769C58.8953 36.4769 51.4835 43.8887 51.4835 53ZM64.7 22C64.7 20.8954 65.5954 20 66.7 20H69.3C70.4046 20 71.3 20.8954 71.3 22V27.9C71.3 29.0046 70.4046 29.9 69.3 29.9H66.7C65.5954 29.9 64.7 29.0046 64.7 27.9V22ZM35 51.7C35 50.5954 35.8954 49.7 37 49.7H42.9C44.0046 49.7 44.9 50.5954 44.9 51.7V54.3C44.9 55.4046 44.0046 56.3 42.9 56.3H37C35.8954 56.3 35 55.4046 35 54.3V51.7ZM91.1 51.7C91.1 50.5954 91.9954 49.7 93.1 49.7H99C100.105 49.7 101 50.5954 101 51.7V54.3C101 55.4046 100.105 56.3 99 56.3H93.1C91.9954 56.3 91.1 55.4046 91.1 54.3V51.7ZM83.4128 35.7494C82.6318 34.9684 82.6318 33.702 83.4128 32.921L87.587 28.7468C88.368 27.9658 89.6344 27.9658 90.4154 28.7468L92.2532 30.5846C93.0342 31.3656 93.0342 32.632 92.2532 33.413L88.079 37.5872C87.298 38.3682 86.0316 38.3682 85.2506 37.5872L83.4128 35.7494ZM50.7497 37.5902C49.9686 38.3713 48.702 38.3712 47.921 37.5898L43.7499 33.4168C42.969 32.6355 42.9694 31.3691 43.7508 30.5882L45.5905 28.7498C46.3719 27.9689 47.6384 27.9695 48.4191 28.7509L52.5885 32.9243C53.3689 33.7054 53.3686 34.9713 52.5879 35.752L50.7497 37.5902Z" fill="#FDF72A"/>
<path d="M83.1875 64.6C83.0949 64.6 83.0178 64.6306 82.9406 64.6306C83.1103 63.8344 83.1875 63.0075 83.1875 62.15C83.1875 55.3819 77.6637 49.9 70.8438 49.9C67.048 49.9 63.6998 51.6303 61.4316 54.31C58.5617 48.7975 52.8373 45 46.1563 45C36.6053 45 28.875 52.6716 28.875 62.15C28.875 63.2678 28.9984 64.3397 29.199 65.3963C23.2895 67.3256 19 72.7922 19 79.3C19 87.4156 25.6348 94 33.8125 94H83.1875C91.3652 94 98 87.4156 98 79.3C98 71.1844 91.3652 64.6 83.1875 64.6Z" fill="#3FD5FE"/>
<path d="M57.2308 84.6484C55.8769 89.2726 53 90.5224 53 93.7822C53 96.6671 55.274 99 58.0769 99C60.8798 99 63.1538 96.6671 63.1538 93.7822C63.1538 90.5119 60.2769 89.2934 58.9231 84.6484C58.6904 83.8048 57.4952 83.7632 57.2308 84.6484Z" fill="#6A9CFF"/>
<path d="M40.2308 84.6484C38.8769 89.2726 36 90.5224 36 93.7822C36 96.6671 38.274 99 41.0769 99C43.8798 99 46.1538 96.6671 46.1538 93.7822C46.1538 90.5119 43.2769 89.2934 41.9231 84.6484C41.6904 83.8048 40.4952 83.7632 40.2308 84.6484Z" fill="#6A9CFF"/>
<path d="M74.2308 84.6484C72.8769 89.2726 70 90.5224 70 93.7822C70 96.6671 72.274 99 75.0769 99C77.8798 99 80.1538 96.6671 80.1538 93.7822C80.1538 90.5119 77.2769 89.2934 75.9231 84.6484C75.6904 83.8048 74.4952 83.7632 74.2308 84.6484Z" fill="#6A9CFF"/>
<path fill-rule="evenodd" clip-rule="evenodd" d="M79.9957 94C79.9985 93.9278 80 93.8552 80 93.7822C80 92.0656 79.2073 90.9143 78.2583 89.536C77.3994 88.2886 76.4124 86.8552 75.7692 84.6484C75.5365 83.8048 74.3413 83.7632 74.0769 84.6484C73.4349 86.8414 72.4503 88.2754 71.5924 89.5249C70.6414 90.91 69.8462 92.0683 69.8462 93.7822C69.8462 93.8552 69.8476 93.9278 69.8505 94H79.9957ZM63.0726 94C63.0755 93.9278 63.0769 93.8552 63.0769 93.7822C63.0769 92.0656 62.2842 90.9143 61.3352 89.536C60.4763 88.2886 59.4893 86.8552 58.8462 84.6484C58.6135 83.8048 57.4183 83.7632 57.1538 84.6484C56.5118 86.8414 55.5272 88.2754 54.6693 89.5249C53.7183 90.91 52.9231 92.0683 52.9231 93.7822C52.9231 93.8552 52.9245 93.9278 52.9274 94H63.0726ZM46.1495 94C46.1524 93.9278 46.1538 93.8552 46.1538 93.7822C46.1538 92.0656 45.3611 90.9143 44.4121 89.536C43.5532 88.2886 42.5663 86.8552 41.9231 84.6484C41.6904 83.8048 40.4952 83.7632 40.2308 84.6484C39.5887 86.8414 38.6041 88.2754 37.7463 89.5249C36.7952 90.91 36 92.0683 36 93.7822C36 93.8552 36.0015 93.9278 36.0043 94H46.1495Z" fill="#3377FF"/>
<path fill-rule="evenodd" clip-rule="evenodd" d="M68.0066 69.5231C58.8953 69.5231 51.4835 62.1113 51.4835 53C51.4835 50.641 51.9804 48.3958 52.875 46.3638C56.5692 47.9379 59.5889 50.7704 61.4317 54.31C63.6998 51.6303 67.0481 49.9 70.8438 49.9C76.9107 49.9 81.9519 54.2382 82.9912 59.9608C80.3597 65.6034 74.6326 69.5231 68.0066 69.5231Z" fill="#F7D056"/>
</svg>

<svg width="120" height="120" fill="none" xmlns="http://www.w3.org/2000/svg"><path d="M51.483 53c0 9.111 7.412 16.523 16.524 16.523 9.11 0 16.523-7.412 16.523-16.523s-7.412-16.523-16.523-16.523c-9.112 0-16.524 7.412-16.524 16.523ZM64.7 22a2 2 0 0 1 2-2h2.6a2 2 0 0 1 2 2v5.9a2 2 0 0 1-2 2h-2.6a2 2 0 0 1-2-2V22ZM35 51.7a2 2 0 0 1 2-2h5.9a2 2 0 0 1 2 2v2.6a2 2 0 0 1-2 2H37a2 2 0 0 1-2-2v-2.6Zm56.1 0a2 2 0 0 1 2-2H99a2 2 0 0 1 2 2v2.6a2 2 0 0 1-2 2h-5.9a2 2 0 0 1-2-2v-2.6Zm-7.687-15.95a2 2 0 0 1 0-2.829l4.174-4.174a2 2 0 0 1 2.828 0l1.838 1.838a2 2 0 0 1 0 2.828l-4.174 4.174a2 2 0 0 1-2.828 0l-1.838-1.838ZM50.75 37.59a2 2 0 0 1-2.829 0l-4.171-4.173a2 2 0 0 1 0-2.829l1.84-1.838a2 2 0 0 1 2.83 0l4.169 4.174a2 2 0 0 1-.001 2.828L50.75 37.59Z" fill="#FDF72A"/><path d="M83.188 64.6c-.093 0-.17.03-.247.03.17-.796.246-1.622.246-2.48 0-6.768-5.523-12.25-12.343-12.25-3.796 0-7.144 1.73-9.412 4.41-2.87-5.513-8.595-9.31-15.276-9.31-9.55 0-17.281 7.672-17.281 17.15 0 1.118.123 2.19.324 3.246C23.289 67.326 19 72.792 19 79.3 19 87.416 25.635 94 33.813 94h49.374C91.365 94 98 87.416 98 79.3s-6.635-14.7-14.813-14.7Z" fill="#3FD5FE"/><path d="M57.23 84.648C55.878 89.273 53 90.522 53 93.782 53 96.667 55.274 99 58.077 99s5.077-2.333 5.077-5.218c0-3.27-2.877-4.489-4.23-9.134-.234-.843-1.429-.885-1.693 0ZM40.23 84.648C38.878 89.273 36 90.522 36 93.782 36 96.667 38.274 99 41.077 99s5.077-2.333 5.077-5.218c0-3.27-2.877-4.489-4.23-9.134-.234-.843-1.429-.885-1.693 0ZM74.23 84.648C72.878 89.273 70 90.522 70 93.782 70 96.667 72.274 99 75.077 99s5.077-2.333 5.077-5.218c0-3.27-2.877-4.489-4.23-9.134-.234-.843-1.429-.885-1.693 0Z" fill="#6A9CFF"/><path fill-rule="evenodd" clip-rule="evenodd" d="M79.996 94a5.62 5.62 0 0 0 .004-.218c0-1.716-.793-2.868-1.742-4.246-.859-1.247-1.846-2.68-2.489-4.888-.233-.843-1.428-.885-1.692 0-.642 2.193-1.627 3.627-2.485 4.877-.95 1.385-1.746 2.543-1.746 4.257 0 .073.002.146.004.218h10.146Zm-16.923 0c.002-.072.004-.145.004-.218 0-1.716-.793-2.868-1.742-4.246-.859-1.247-1.846-2.68-2.489-4.888-.232-.843-1.428-.885-1.692 0-.642 2.193-1.627 3.627-2.485 4.877-.95 1.385-1.746 2.543-1.746 4.257 0 .073.002.146.004.218h10.146ZM46.15 94c.002-.072.004-.145.004-.218 0-1.716-.793-2.868-1.742-4.246-.859-1.247-1.846-2.68-2.489-4.888-.233-.843-1.428-.885-1.692 0-.642 2.193-1.627 3.627-2.485 4.877C36.796 90.91 36 92.068 36 93.782c0 .073.002.146.004.218H46.15Z" fill="#37F"/><path fill-rule="evenodd" clip-rule="evenodd" d="M68.007 69.523c-9.112 0-16.524-7.412-16.524-16.523 0-2.359.497-4.604 1.392-6.636a17.34 17.34 0 0 1 8.557 7.946c2.268-2.68 5.616-4.41 9.412-4.41 6.067 0 11.108 4.338 12.147 10.06-2.631 5.643-8.358 9.563-14.984 9.563Z" fill="#F7D056"/></svg>
